alura/assets/api/cursos/python-analise-dados-sql.svg

<svg width="50" height="50" viewBox="0 0 50 50" fill="none" xmlns="http://www.w3.org/2000/svg">
<path d="M31.1399 4.34L25.1699 1.5C21.9699 1.5 3.71994 10.44 3.71994 13.64L3.18994 21.44L38.7999 8.77L31.1399 4.34Z" fill="#EC6A6D"/>
<path d="M3.18994 21.44L3.71994 36.57L15.2199 44.13L46.2299 33.1C46.9699 32.68 45.4099 14.35 44.4299 12.36L38.7999 8.77002L3.18994 21.44Z" fill="#E46160"/>
<path d="M29.69 46.4099L27.49 47.6799C25.8 48.6599 23.71 48.6599 22.02 47.6799L6.44996 38.6899C4.75996 37.7099 3.70996 35.9099 3.70996 33.9499V15.9699C3.70996 14.0099 4.74996 12.2099 6.44996 11.2299L22.02 2.23988C23.71 1.25988 25.8 1.25988 27.49 2.23988L43.06 11.2299C44.75 12.2099 45.8 14.0099 45.8 15.9699V33.9499C45.8 35.9099 44.76 37.7099 43.06 38.6899L40.6 40.1099" stroke="#444444" stroke-width="2.5" stroke-miterlimit="10" stroke-linecap="round" stroke-linejoin="round"/>
<path d="M25.8301 16.79C25.8401 15.7 25.3501 14.92 24.4601 14.39C24.0001 14.12 23.4901 13.91 22.9801 13.77C21.2501 13.28 19.4801 13.31 17.7101 13.47C16.5901 13.57 15.4901 13.78 14.5201 14.41C13.8801 14.83 13.5101 15.38 13.5301 16.18L13.5201 18.19C13.4801 18.77 13.7201 18.94 14.2701 18.93C15.8701 18.91 17.4601 18.94 19.0601 18.95C19.4401 18.95 19.9201 19.27 19.9101 19.83C19.9101 20.4 19.5301 20.79 19.1601 20.79C17.7401 20.79 16.3101 20.79 14.8901 20.78C14.8901 20.79 12.2601 20.81 10.9401 20.8C9.38012 20.78 8.19012 20.82 7.55012 22.19C6.57012 24.27 6.63012 26.47 7.03012 28.66C7.18012 29.47 7.53012 30.27 7.92012 30.99C8.36012 31.8 9.11012 32.31 10.0601 32.38C10.6801 32.43 11.3101 32.39 11.9401 32.41C12.3001 32.42 12.4401 32.26 12.4301 31.91C12.4201 31.22 12.4301 30.53 12.4301 29.84C12.4301 27 13.8101 25.64 16.6601 25.66C18.5801 25.67 20.5001 25.69 22.4201 25.67C24.6201 25.65 25.8101 24.44 25.8201 22.24C25.8301 20.42 25.8101 18.6 25.8301 16.79Z" stroke="#444444" stroke-miterlimit="10"/>
<path d="M33.18 24.1501C33.03 23.3401 32.68 22.5401 32.29 21.8201C31.85 21.0101 31.1 20.5001 30.15 20.4301C29.53 20.3801 28.9 20.4201 28.27 20.4001C27.91 20.3901 27.77 20.5501 27.78 20.9001C27.79 21.5901 27.78 22.2801 27.78 22.9701C27.78 25.8101 26.4 27.1701 23.55 27.1501C21.63 27.1401 19.71 27.1201 17.79 27.1401C15.59 27.1601 14.4 28.3701 14.39 30.5701C14.38 32.3801 14.4 34.2001 14.38 36.0101C14.37 37.1001 14.86 37.8801 15.75 38.4101C16.21 38.6801 16.72 38.8901 17.23 39.0301C18.96 39.5201 20.73 39.4901 22.5 39.3301C23.62 39.2301 24.72 39.0201 25.69 38.3901C26.33 37.9701 26.59 37.5501 26.68 36.6201L26.69 34.6101C26.73 34.0301 26.49 33.8601 25.94 33.8701C24.34 33.8901 22.75 33.8601 21.15 33.8501C20.77 33.8501 20.39 33.5701 20.4 33.0201C20.4 32.4501 20.73 32.1901 21.1 32.1901C22.52 32.1901 25.37 32.1801 25.37 32.1701C26.69 32.1701 28 32.1601 29.32 32.1801C30.88 32.2001 32.02 31.9801 32.66 30.6201C33.63 28.5301 33.57 26.3301 33.18 24.1501Z" stroke="#444444" stroke-miterlimit="10"/>
<path d="M16.49 17.31C15.77 17.3 15.3 16.81 15.31 16.08C15.32 15.43 15.85 14.9 16.5 14.89C17.17 14.88 17.73 15.44 17.73 16.12C17.72 16.83 17.21 17.32 16.49 17.31Z" fill="#444444"/>
<path d="M23.74 35.45C24.46 35.46 24.93 35.95 24.92 36.68C24.91 37.33 24.38 37.8599 23.73 37.8699C23.06 37.8799 22.5 37.3199 22.5 36.6399C22.51 35.9399 23.02 35.45 23.74 35.45Z" fill="#444444"/>
<path d="M22.5199 13.5699C22.2699 13.1999 22.1399 12.7999 22.1399 12.3899C22.1399 10.0699 26.3699 8.18994 31.5899 8.18994C36.8099 8.18994 41.0399 10.0699 41.0399 12.3899C41.0399 14.7099 36.8099 16.5899 31.5899 16.5899C29.4499 16.5899 27.4799 16.2699 25.8999 15.7399" stroke="#444444" stroke-width="0.5" stroke-miterlimit="10"/>
<path d="M41.04 17.6399C41.04 19.8599 37.16 21.6799 32.24 21.8299" stroke="#444444" stroke-width="0.5" stroke-miterlimit="10"/>
<path d="M41.04 22.8899C41.04 24.9999 37.79 26.6799 33.22 26.9699" stroke="#444444" stroke-width="0.5" stroke-miterlimit="10"/>
<path d="M30.71 32.3099C35.93 32.3099 41.04 30.4599 41.04 28.1399V12.3899" stroke="#444444" stroke-width="0.5" stroke-miterlimit="10"/>
<path d="M22.1399 12.3899V13.4499" stroke="#444444" stroke-width="0.5" stroke-miterlimit="10"/>
<path d="M38.1499 18.6999C38.5862 18.6999 38.9399 18.3462 38.9399 17.9099C38.9399 17.4736 38.5862 17.1199 38.1499 17.1199C37.7136 17.1199 37.3599 17.4736 37.3599 17.9099C37.3599 18.3462 37.7136 18.6999 38.1499 18.6999Z" fill="#444444" stroke="#444444" stroke-width="0.5" stroke-miterlimit="10"/>
<path d="M38.1499 23.9499C38.5862 23.9499 38.9399 23.5962 38.9399 23.1599C38.9399 22.7236 38.5862 22.3699 38.1499 22.3699C37.7136 22.3699 37.3599 22.7236 37.3599 23.1599C37.3599 23.5962 37.7136 23.9499 38.1499 23.9499Z" fill="#444444" stroke="#444444" stroke-width="0.5" stroke-miterlimit="10"/>
<path d="M38.1499 29.1999C38.5862 29.1999 38.9399 28.8462 38.9399 28.4099C38.9399 27.9736 38.5862 27.6199 38.1499 27.6199C37.7136 27.6199 37.3599 27.9736 37.3599 28.4099C37.3599 28.8462 37.7136 29.1999 38.1499 29.1999Z" fill="#444444" stroke="#444444" stroke-width="0.5" stroke-miterlimit="10"/>
</svg>

<svg xmlns="http://www.w3.org/2000/svg" id="Camada_3" x="0" y="0" version="1.1" viewBox="0 0 50 50" xml:space="preserve"><style>.st3,.st5{fill:none}.st3,.st5,.st6{stroke:#444;stroke-miterlimit:10}.st5,.st6{stroke-width:.5}.st6{fill:#424242}</style><path fill="#ec6a6d" d="M31.14 4.34L25.17 1.5c-3.2 0-21.45 8.94-21.45 12.14l-.53 7.8L38.8 8.77l-7.66-4.43z"/><path fill="#e46160" d="M3.19 21.44l.53 15.13 11.5 7.56L46.23 33.1c.74-.42-.82-18.75-1.8-20.74L38.8 8.77 3.19 21.44z"/><path fill="none" stroke="#444" stroke-linecap="round" stroke-linejoin="round" stroke-miterlimit="10" stroke-width="2.5" d="M29.69 46.41l-2.2 1.27c-1.69.98-3.78.98-5.47 0L6.45 38.69a5.48 5.48 0 01-2.74-4.74V15.97a5.46 5.46 0 012.74-4.74l15.57-8.99c1.69-.98 3.78-.98 5.47 0l15.57 8.99a5.48 5.48 0 012.74 4.74v17.98a5.46 5.46 0 01-2.74 4.74l-2.46 1.42"/><path d="M25.83 16.79c.01-1.09-.48-1.87-1.37-2.4a6.19 6.19 0 00-1.48-.62c-1.73-.49-3.5-.46-5.27-.3-1.12.1-2.22.31-3.19.94-.64.42-1.01.97-.99 1.77l-.01 2.01c-.04.58.2.75.75.74 1.6-.02 3.19.01 4.79.02.38 0 .86.32.85.88 0 .57-.38.96-.75.96-1.42 0-2.85 0-4.27-.01 0 .01-2.63.03-3.95.02-1.56-.02-2.75.02-3.39 1.39-.98 2.08-.92 4.28-.52 6.47.15.81.5 1.61.89 2.33.44.81 1.19 1.32 2.14 1.39.62.05 1.25.01 1.88.03.36.01.5-.15.49-.5-.01-.69 0-1.38 0-2.07 0-2.84 1.38-4.2 4.23-4.18 1.92.01 3.84.03 5.76.01 2.2-.02 3.39-1.23 3.4-3.43.01-1.82-.01-3.64.01-5.45z" class="st3"/><path d="M33.18 24.15c-.15-.81-.5-1.61-.89-2.33-.44-.81-1.19-1.32-2.14-1.39-.62-.05-1.25-.01-1.88-.03-.36-.01-.5.15-.49.5.01.69 0 1.38 0 2.07 0 2.84-1.38 4.2-4.23 4.18-1.92-.01-3.84-.03-5.76-.01-2.2.02-3.39 1.23-3.4 3.43-.01 1.81.01 3.63-.01 5.44-.01 1.09.48 1.87 1.37 2.4.46.27.97.48 1.48.62 1.73.49 3.5.46 5.27.3 1.12-.1 2.22-.31 3.19-.94.64-.42.9-.84.99-1.77l.01-2.01c.04-.58-.2-.75-.75-.74-1.6.02-3.19-.01-4.79-.02-.38 0-.76-.28-.75-.83 0-.57.33-.83.7-.83 1.42 0 4.27-.01 4.27-.02 1.32 0 2.63-.01 3.95.01 1.56.02 2.7-.2 3.34-1.56.97-2.09.91-4.29.52-6.47z" class="st3"/><path fill="#3c3c3b" d="M16.49 17.31c-.72-.01-1.19-.5-1.18-1.23.01-.65.54-1.18 1.19-1.19.67-.01 1.23.55 1.23 1.23-.01.71-.52 1.2-1.24 1.19zm7.25 18.14c.72.01 1.19.5 1.18 1.23-.01.65-.54 1.18-1.19 1.19a1.23 1.23 0 01-1.23-1.23c.01-.7.52-1.19 1.24-1.19z"/><path d="M22.52 13.57c-.25-.37-.38-.77-.38-1.18 0-2.32 4.23-4.2 9.45-4.2s9.45 1.88 9.45 4.2-4.23 4.2-9.45 4.2c-2.14 0-4.11-.32-5.69-.85m15.14 1.9c0 2.22-3.88 4.04-8.8 4.19m8.8 1.06c0 2.11-3.25 3.79-7.82 4.08" class="st5"/><path d="M30.71 32.31c5.22 0 10.33-1.85 10.33-4.17V12.39m-18.9 0v1.06" class="st5"/><circle cx="38.15" cy="17.91" r=".79" class="st6"/><circle cx="38.15" cy="23.16" r=".79" class="st6"/><circle cx="38.15" cy="28.41" r=".79" class="st6"/></svg>
